src/assets/svg/gradle.svg

<svg xmlns="http://www.w3.org/2000/svg" viewBox="0 0 876 306"><path fill="#02303a" d="M211.34 113.04c3.75-3.42-1.48-9.01-5.63-5.25q-12.54 11.35-29.31 20.83-9.19 5.19-16.32.09-2.82-2.01-5.49-6.8-7.14-12.8-14.25-24.71-2.65-4.44-2.84-7.54-.55-9.22 6.78-13.17c5.63-3.02 12.47-5.65 18.79-7.78q23.94-8.09 47.68-6.1c25.75 2.16 47.49 13.93 70.06 25.22 6.63 3.32 14.38 6.66 21.59 7.09q13.5.81 21.75-11.87c3.53-5.43 4.21-13.82 1.74-19.97-5.96-14.8-22.87-20.02-36.11-10.59-1.6 1.14-3.8.97-5.23-.38-2.72-2.57-9.58-7.51-4.61-11.7q9.32-7.86 19.51-9.7c18.72-3.39 36.08 4.93 45.11 21.5q10.48 19.23 4.04 41.13c-6.63 22.57-25.58 41.39-44.46 55.45-17.79 13.25-24.9 37.46-26.37 58.97q-.34 4.95-.58 9.63a3.5 3.5 0 0 1-3.47 3.32q-9.23.08-18.3.02-3.06-.02-3.63-3.11-3.2-17.71-19.76-22.67c-7.06-2.12-15.31-.61-21.35 3.42q-10.22 6.83-12.03 19.39c-.27 1.92-2.04 3-3.88 3l-18.35-.02c-3.95 0-3.69-5.59-4.56-8.14q-4.01-11.71-15.35-16.55c-6.89-2.94-15.09-2.71-21.71.69q-12.71 6.5-14.93 21c-.26 1.73-1.87 3.03-3.59 3.02q-10.11-.03-18.68-.01-3.22.01-3.85-3.19c-8.5-43.56 2.17-89.97 39.28-116.94q.34-.24.55.12 7.56 13.03 15.7 27.09c4.47 7.72 13.18 12.39 21.91 10.92q4.15-.69 9.76-3.84 16.69-9.36 30.39-21.87M258 110.9l10.31 5.14a1.96 1.96 0 0 0 2.62-.88l.65-1.28a7.76 7.63-63.5 0 0-3.37-10.35l-.16-.08a7.76 7.63-63.5 0 0-10.29 3.54l-.64 1.29a1.96 1.96 0 0 0 .88 2.62m392.75 41.05V115q0-.5.5-.5h16.88q.62 0 .62.63v105.41q0 .44-.44.44-5.34.05-10.62 0c-5.06-.06-4.83-5.76-5.71-9.32q-.16-.66-.63-.18c-8.08 8.33-17.48 12.33-29.05 9.85-18.65-4.01-22.57-27.32-20.99-42.94 2.02-19.96 15.76-35.47 37.33-31.91q5.85.96 11.49 5.76.62.53.62-.29m-.31 13.93c-4.53-5.6-11.73-7.35-18.58-5.51-13.64 3.68-13.44 24.18-11.34 34.71 1.37 6.91 5.41 12.3 12.99 12.67q9.96.47 16.88-8.25.36-.46.36-1.04v-31.7q0-.5-.31-.88"/><rect width="18" height="106.5" x="686.25" y="114.5" fill="#02303a" rx=".41"/><path fill="#02303a" d="M446.75 183.5H434a3.25 3.25 0 0 1-3.25-3.25v-11q0-.5.5-.5h33.5q.5 0 .5.5v41.22a.97.97 0 0 1-.42.8q-13.24 9.45-29.67 10.6c-9.6.66-19.14-.16-28.17-3.44-17.45-6.32-29.19-19.98-32.54-38.54q-2.3-12.72.8-25.62c5.38-22.36 23.04-35.83 45.48-37.86 16.1-1.47 31.85 1.88 44.05 12.84q.46.42.14.95-3.32 5.48-5.66 8.78-2.52 3.56-6.81 1.54c-3.22-1.52-6.13-3.7-9.56-4.98q-7.85-2.93-16.2-2.84c-26.34.29-36.74 23.52-32.22 46.65 4.91 25.12 31.23 33.18 52.51 22.97q.52-.25.52-.83v-17.24q0-.75-.75-.75m50.31-24.7c4.75-8.46 11.63-14.16 22.13-12.58q2.2.33 4.39 1.58.55.31.49.95-.47 5.45-1.04 12.43c-.17 2.06-1.96 3.28-3.96 2.84-9.55-2.08-15.58.08-20.23 8.9q-1.12 2.14-1.11 4.44.04 21.65.02 43.33a.31.3-89 0 1-.3.3l-17.2.01q-.5 0-.5-.5v-72.69q0-.54.54-.55 6.16-.08 11.13.07 3.6.11 4.1 4.05.42 3.35.94 7.3.13.96.6.12m75.05 53.73c-8.06 7.03-16.24 10.59-27.43 9.31q-13.6-1.55-16.98-13.45-1.44-5.07-.24-10.43c3.59-16.06 29.93-19.25 42.95-19.2q.52 0 .55-.52c.51-8.49-.82-17.5-11.35-18.05-6.07-.32-10.72 1.76-15.68 4.94-3.4 2.18-7.7 2.37-10.09-1.41q-1.68-2.65-3.16-5.65-.26-.51.17-.89 10.27-9.29 24.29-10.9 11.28-1.3 18.7 2.25c9.92 4.75 14.55 14.37 14.61 25.83q.1 22.36.04 46.05a.61.6 0 0 1-.61.6l-8.36-.02c-5.15-.02-5.6-4.37-6.57-8.19q-.21-.82-.84-.27m-27.32-7.51c1.31 3.38 5.46 4.66 8.82 4.7q10.1.14 17.04-7.81.35-.4.35-.94v-10.69q0-.54-.54-.54c-7.76.11-30.96 1.6-25.67 15.28m190.73-17.84c.88 10.37 5.63 19.21 16.43 20.66q8.65 1.16 16.29-3.03c3.32-1.82 8.13-5.43 11.33-1.04q2.19 3 4.31 5.57a.87.86-44.2 0 1-.02 1.13c-7.56 8.45-19.12 11.7-30.42 11.56-23.57-.27-36.36-17.8-35.89-40.38.37-17.53 10.53-31.42 28.22-34.9 3.6-.71 8.76-.87 12.41-.31q20.79 3.16 25.8 23.46 1.48 5.97.88 12.85-.33 3.77-4.13 3.77-23.21-.04-44.59-.02-.68 0-.62.68m.99-11.54 32.32-.28a.25.25 0 0 0 .25-.25v-.15a16.08 16.02 89.5 0 0-16.16-15.94h-.78a16.08 16.02 89.5 0 0-15.88 16.22v.15a.25.25 0 0 0 .25.25"/></svg>

<?xml version="1.0" encoding="UTF-8" standalone="no"?>
<!DOCTYPE svg PUBLIC "-//W3C//DTD SVG 1.1//EN" "http://www.w3.org/Graphics/SVG/1.1/DTD/svg11.dtd">
<svg xmlns="http://www.w3.org/2000/svg" version="1.1" viewBox="0.00 0.00 876.00 306.00">
<path fill="#02303a" d="
  M 211.34 113.04
  C 215.09 109.62 209.86 104.03 205.71 107.79
  Q 193.17 119.14 176.40 128.62
  Q 167.21 133.81 160.08 128.71
  Q 157.26 126.70 154.59 121.91
  Q 147.45 109.11 140.34 97.20
  Q 137.69 92.76 137.50 89.66
  Q 136.95 80.44 144.28 76.49
  C 149.91 73.47 156.75 70.84 163.07 68.71
  Q 187.01 60.62 210.75 62.61
  C 236.50 64.77 258.24 76.54 280.81 87.83
  C 287.44 91.15 295.19 94.49 302.40 94.92
  Q 315.90 95.73 324.15 83.05
  C 327.68 77.62 328.36 69.23 325.89 63.08
  C 319.93 48.28 303.02 43.06 289.78 52.49
  C 288.18 53.63 285.98 53.46 284.55 52.11
  C 281.83 49.54 274.97 44.60 279.94 40.41
  Q 289.26 32.55 299.45 30.71
  C 318.17 27.32 335.53 35.64 344.56 52.21
  Q 355.04 71.44 348.60 93.34
  C 341.97 115.91 323.02 134.73 304.14 148.79
  C 286.35 162.04 279.24 186.25 277.77 207.76
  Q 277.43 212.71 277.19 217.39
  A 3.50 3.50 0.0 0 1 273.72 220.71
  Q 264.49 220.79 255.42 220.73
  Q 252.36 220.71 251.79 217.62
  Q 248.59 199.91 232.03 194.95
  C 224.97 192.83 216.72 194.34 210.68 198.37
  Q 200.46 205.20 198.65 217.76
  C 198.38 219.68 196.61 220.76 194.77 220.76
  Q 185.00 220.75 176.42 220.74
  C 172.47 220.74 172.73 215.15 171.86 212.60
  Q 167.85 200.89 156.51 196.05
  C 149.62 193.11 141.42 193.34 134.80 196.74
  Q 122.09 203.24 119.87 217.74
  C 119.61 219.47 118.00 220.77 116.28 220.76
  Q 106.17 220.73 97.60 220.75
  Q 94.38 220.76 93.75 217.56
  C 85.25 174.00 95.92 127.59 133.03 100.62
  Q 133.37 100.38 133.58 100.74
  Q 141.14 113.77 149.28 127.83
  C 153.75 135.55 162.46 140.22 171.19 138.75
  Q 175.34 138.06 180.95 134.91
  Q 197.64 125.55 211.34 113.04
  Z
  M 258.00 110.90
  L 268.31 116.04
  A 1.96 1.96 0.0 0 0 270.93 115.16
  L 271.58 113.88
  A 7.76 7.63 -63.5 0 0 268.21 103.53
  L 268.05 103.45
  A 7.76 7.63 -63.5 0 0 257.76 106.99
  L 257.12 108.28
  A 1.96 1.96 0.0 0 0 258.00 110.90
  Z"
/>
<path fill="#02303a" d="
  M 650.75 151.95
  L 650.75 115.00
  Q 650.75 114.50 651.25 114.50
  L 668.13 114.50
  Q 668.75 114.50 668.75 115.13
  L 668.75 220.54
  Q 668.75 220.98 668.31 220.98
  Q 662.97 221.03 657.69 220.98
  C 652.63 220.92 652.86 215.22 651.98 211.66
  Q 651.82 211.00 651.35 211.48
  C 643.27 219.81 633.87 223.81 622.30 221.33
  C 603.65 217.32 599.73 194.01 601.31 178.39
  C 603.33 158.43 617.07 142.92 638.64 146.48
  Q 644.49 147.44 650.13 152.24
  Q 650.75 152.77 650.75 151.95
  Z
  M 650.44 165.88
  C 645.91 160.28 638.71 158.53 631.86 160.37
  C 618.22 164.05 618.42 184.55 620.52 195.08
  C 621.89 201.99 625.93 207.38 633.51 207.75
  Q 643.47 208.22 650.39 199.50
  Q 650.75 199.04 650.75 198.46
  L 650.75 166.76
  Q 650.75 166.26 650.44 165.88
  Z"
/>
<rect fill="#02303a" x="686.25" y="114.50" width="18.00" height="106.50" rx="0.41"/>
<path fill="#02303a" d="
  M 446.75 183.50
  L 434.00 183.50
  A 3.25 3.25 0.0 0 1 430.75 180.25
  L 430.75 169.25
  Q 430.75 168.75 431.25 168.75
  L 464.75 168.75
  Q 465.25 168.75 465.25 169.25
  L 465.25 210.47
  A 0.97 0.97 0.0 0 1 464.83 211.27
  Q 451.59 220.72 435.16 221.87
  C 425.56 222.53 416.02 221.71 406.99 218.43
  C 389.54 212.11 377.80 198.45 374.45 179.89
  Q 372.15 167.17 375.25 154.27
  C 380.63 131.91 398.29 118.44 420.73 116.41
  C 436.83 114.94 452.58 118.29 464.78 129.25
  Q 465.24 129.67 464.92 130.20
  Q 461.60 135.68 459.26 138.98
  Q 456.74 142.54 452.45 140.52
  C 449.23 139.00 446.32 136.82 442.89 135.54
  Q 435.04 132.61 426.69 132.70
  C 400.35 132.99 389.95 156.22 394.47 179.35
  C 399.38 204.47 425.70 212.53 446.98 202.32
  Q 447.50 202.07 447.50 201.49
  L 447.50 184.25
  Q 447.50 183.50 446.75 183.50
  Z"
/>
<path fill="#02303a" d="
  M 497.06 158.80
  C 501.81 150.34 508.69 144.64 519.19 146.22
  Q 521.39 146.55 523.58 147.80
  Q 524.13 148.11 524.07 148.75
  Q 523.60 154.20 523.03 161.18
  C 522.86 163.24 521.07 164.46 519.07 164.02
  C 509.52 161.94 503.49 164.10 498.84 172.92
  Q 497.72 175.06 497.73 177.36
  Q 497.77 199.01 497.75 220.69
  A 0.31 0.30 -89.0 0 1 497.45 220.99
  L 480.25 221.00
  Q 479.75 221.00 479.75 220.50
  L 479.75 147.81
  Q 479.75 147.27 480.29 147.26
  Q 486.45 147.18 491.42 147.33
  Q 495.02 147.44 495.52 151.38
  Q 495.94 154.73 496.46 158.68
  Q 496.59 159.64 497.06 158.80
  Z"
/>
<path fill="#02303a" d="
  M 572.11 212.53
  C 564.05 219.56 555.87 223.12 544.68 221.84
  Q 531.08 220.29 527.70 208.39
  Q 526.26 203.32 527.46 197.96
  C 531.05 181.90 557.39 178.71 570.41 178.76
  Q 570.93 178.76 570.96 178.24
  C 571.47 169.75 570.14 160.74 559.61 160.19
  C 553.54 159.87 548.89 161.95 543.93 165.13
  C 540.53 167.31 536.23 167.50 533.84 163.72
  Q 532.16 161.07 530.68 158.07
  Q 530.42 157.56 530.85 157.18
  Q 541.12 147.89 555.14 146.28
  Q 566.42 144.98 573.84 148.53
  C 583.76 153.28 588.39 162.90 588.45 174.36
  Q 588.55 196.72 588.49 220.41
  A 0.61 0.60 0.0 0 1 587.88 221.01
  Q 583.76 221.00 579.52 220.99
  C 574.37 220.97 573.92 216.62 572.95 212.80
  Q 572.74 211.98 572.11 212.53
  Z
  M 544.79 205.02
  C 546.10 208.40 550.25 209.68 553.61 209.72
  Q 563.71 209.86 570.65 201.91
  Q 571.00 201.51 571.00 200.97
  L 571.00 190.28
  Q 571.00 189.74 570.46 189.74
  C 562.70 189.85 539.50 191.34 544.79 205.02
  Z"
/>
<path fill="#02303a" d="
  M 735.52 187.18
  C 736.40 197.55 741.15 206.39 751.95 207.84
  Q 760.60 209.00 768.24 204.81
  C 771.56 202.99 776.37 199.38 779.57 203.77
  Q 781.76 206.77 783.88 209.34
  A 0.87 0.86 -44.2 0 1 783.86 210.47
  C 776.30 218.92 764.74 222.17 753.44 222.03
  C 729.87 221.76 717.08 204.23 717.55 181.65
  C 717.92 164.12 728.08 150.23 745.77 146.75
  C 749.37 146.04 754.53 145.88 758.18 146.44
  Q 778.97 149.60 783.98 169.90
  Q 785.46 175.87 784.86 182.75
  Q 784.53 186.52 780.73 186.52
  Q 757.52 186.48 736.14 186.50
  Q 735.46 186.50 735.52 187.18
  Z
  M 736.51 175.64
  L 768.83 175.36
  A 0.25 0.25 0.0 0 0 769.08 175.11
  L 769.08 174.96
  A 16.08 16.02 89.5 0 0 752.92 159.02
  L 752.14 159.02
  A 16.08 16.02 89.5 0 0 736.26 175.24
  L 736.26 175.39
  A 0.25 0.25 0.0 0 0 736.51 175.64
  Z"
/>
</svg>
